build/img/icon-es6.svg

<svg width="69" height="69" viewBox="0 0 69 69" fill="none" xmlns="http://www.w3.org/2000/svg">
  <path d="M0 0H69V69H0V0Z" fill="#F26522"/>
  <path d="M28.4453 43.1135H38.9994V40.2422H31.7048V35.7931H38.4304V32.9218H31.7048V28.757H38.9994V25.8857H28.4453V43.1135V43.1135ZM53.0973 38.4315C53.0973 34.9909 52.8644 34.2408 48.2341 33.1285C45.2593 32.4043 45.2075 32.3525 45.2075 30.3866C45.2075 28.8864 45.5956 28.4206 47.7945 28.4206C49.2947 28.4206 50.976 28.6276 52.3989 28.9381L52.7611 26.1962C51.0537 25.8081 49.2429 25.627 47.7425 25.627C43.3709 25.627 41.9483 27.1792 41.9483 30.3089C41.9483 33.9565 42.5173 34.7583 46.6821 35.6896C49.7863 36.362 49.8381 36.517 49.8381 38.4315C49.8381 40.0869 49.4499 40.5786 47.0959 40.5786C45.3886 40.5786 43.8367 40.2681 42.233 39.7764L41.6637 42.3375C42.8019 42.8806 45.0784 43.3722 47.0444 43.3722C52.1401 43.3722 53.0973 41.6906 53.0973 38.4315V38.4315ZM59.0987 32.0164C59.0987 29.3777 60.3663 28.8602 63.4184 28.8602C63.9618 28.8602 65.1001 28.9381 65.8502 29.0934L66.0572 26.4547C65.2809 26.2738 64.0394 26.1444 63.0823 26.1444C58.3744 26.1444 55.9427 27.5929 55.9427 32.1455V38.4315C55.9427 41.4063 56.8222 43.372 61.2714 43.372C65.3327 43.372 66.5744 41.3545 66.5744 38.6644V37.4226C66.5744 34.4478 65.3068 33.1544 62.177 33.1544C61.0646 33.1544 60.004 33.3096 59.0987 33.6201V32.0164V32.0164ZM61.6854 35.8707C62.8236 35.8707 63.4184 36.2588 63.4184 37.5003V38.7679C63.4184 40.0869 62.9009 40.6562 61.2716 40.6562C59.6418 40.6562 59.0987 40.1904 59.0987 38.7679V36.4138C59.8229 36.1033 60.7541 35.8707 61.6854 35.8707Z" fill="white"/>
</svg>

<svg width="69" height="69" fill="none" xmlns="http://www.w3.org/2000/svg"><path d="M0 0h69v69H0V0z" fill="#F26522"/><path d="M28.445 43.114H39v-2.872h-7.294v-4.449h6.725v-2.871h-6.725v-4.165H39v-2.871H28.445v17.228zm24.652-4.682c0-3.441-.233-4.191-4.863-5.303-2.975-.725-3.026-.776-3.026-2.742 0-1.5.388-1.966 2.587-1.966 1.5 0 3.181.207 4.604.517l.362-2.742a23.507 23.507 0 00-5.019-.569c-4.371 0-5.794 1.552-5.794 4.682 0 3.647.57 4.45 4.734 5.38 3.104.673 3.156.828 3.156 2.742 0 1.656-.388 2.148-2.742 2.148-1.707 0-3.26-.31-4.863-.803l-.57 2.561c1.139.544 3.415 1.035 5.381 1.035 5.096 0 6.053-1.681 6.053-4.94zm6.002-6.416c0-2.638 1.267-3.156 4.32-3.156.543 0 1.681.078 2.431.233l.207-2.638c-.776-.181-2.018-.31-2.975-.31-4.708 0-7.14 1.448-7.14 6v6.286c0 2.975.88 4.941 5.33 4.941 4.06 0 5.302-2.017 5.302-4.708v-1.241c0-2.975-1.267-4.269-4.397-4.269-1.112 0-2.173.156-3.078.466v-1.604zm2.586 3.855c1.139 0 1.733.388 1.733 1.63v1.267c0 1.319-.517 1.888-2.146 1.888-1.63 0-2.173-.466-2.173-1.888v-2.354a6.777 6.777 0 012.586-.543z" fill="#fff"/></svg>
